X:1
T:Newtown Bridge
C:Paddy O'Brien
R:Double Jig
M:6/8
L:1/8
K: D
FG | {B}.AA G FDD | ded ^cAF | GFG ABG | {G}.EE D EFG |\
{B}.AA G FDD | ded ^cAG | Add eaf |gec d2 :||\
 A | dcd AFA | dfa afd | eAB {d}.^c^c d |\
1 ^c AG EFG | {B}.AA G FDD | ded ^c AG | Add eaf | gec d2 :|
2 ^c AG ^c eg | afa {a}.gg e | fed edc | Add eaf | gec d2 ||
